X:1
T:Eternal God beyond All Time
T:Tune: Joseph Barnby, 1872 Text under copyright; for copyrighted material see Psalter Hymnal 447
T:LMD JORDAN www.hymnary.org/text/eternal_god_beyond_all_time
T:This tune is in the public domain. You may freely use this score for personal and congregational worship. If you reproduce the score, please credit Hymnary.org as the source. 
T:Eternal God beyond All Time
T:This tune is in the public domain. You may freely use this score for personal and congregational worship. If you reproduce the score, please credit Hymnary.org as the source. 
Z:This tune is in the public domain. You may freely use this score for personal and congregational worship. If you reproduce the score, please credit Hymnary.org as the source.
%%score ( 1 2 ) ( 3 4 )
L:1/8
M:4/4
K:D
V:1 treble nm="SOPRANO ALTO" snm="S. A."
V:2 treble 
V:3 bass nm="TENOR BASS" snm="T. B."
V:4 bass 
V:1
 F2 | A2 B2 A2 FE | D2 E2 F2 A2 | F2 ^G2 A2 Bc | B2 B2 A2 A2 | F2 B2 A2 FE | D2 E2 F2 ^G2 | %7
 A2 B2 c2 dc | B2 B2 A2 A2 | d2 d2 c2 dc | B2 B2 A2 D2 | G2 G2 F2 ^GA | B2 A^G A2 A2 |1 %13
 d2 d2 c2 dc | B2 B2 A2 D2 | G2 F2 E2 =D2 | CD E2 D2 x2 |] %17
V:2
 D2 | D2 D2 D2 C2 | B,2 C2 D2 E2 | D2 D2 C2 DE | F2 ED C2 E2 | D2 D2 D2 C2 | B,2 C2 D2 D2 | %7
 C2 E2 E2 DE | F2 ED C2 E2 | D2 F2 F2 D2 | D2 D2 D2 D2 | D2 C2 D2 F2 | F2 ^E2 F2 C2 |1 %13
 D2 E2 E2 D2 | D2 D2 E2 D2 | D2 ^D2 B,2 B,2 | A,2 C2 A,2 x2 |] %17
V:3
 A,2 | F,2 G,F, E,2 A,G, | F,2 A,2 A,2 A,2 | A,2 B,2 A,2 A,2 | A,2 ^G,2 A,2 A,2 | %5
 A,2 G,F, E,2 A,G, | F,2 A,2 A,2 B,2 | A,2 ^G,2 A,2 A,2 | A,2 ^G,2 A,2 A,2 | B,2 B,2 B,2 A,2 | %10
 A,2 G,2 F,2 A,2 | B,2 A,2 A,2 DC | B,2 B,2 A,2 =G,2 |1 F,2 ^G,2 A,2 A,2 | A,2 G,2 G,2 F,2 | %15
 G,2 A,2 G,2 F,2 | E,F, G,2 F,2 x2 |] %17
V:4
 D,2 | D,2 G,,2 A,,2 A,,2 | B,,2 A,,2 D,2 C,2 | D,2 B,,2 F,2 E,2 | D,2 E,2 A,,2 C,2 | %5
 D,2 G,,2 A,,2 A,,2 | B,,2 A,,2 D,2 B,,2 | F,2 E,2 A,^G, F,E, | D,2 E,2 A,,2 C,2 | %9
 B,,2 D,2 F,2 F,,2 | G,,2 B,,2 D,2 F,2 | E,2 A,,2 D,C, B,,A,, | ^G,,2 C,2 F,2 E,2 |1 %13
 D,2 B,,2 A,,2 F,,2 | G,,2 B,,2 C,2 D,2 | B,,2 B,,2 E,2 G,,2 | A,,2 A,,2 D,2 x2 |] %17

